X:4552
L:1/8
M:6/8
K:D
 A | A2 A B2 c | d2 d d2 f | efe c2 A | d3 def | g2 g g2 e | f2 f f2 d | Bed cBc | d3 d2 :: z | 
 d3 d3 | d6 | d2 c d2 f | e2 c B2 A | A2 A B2 c | d2 d d2 f | efe c2 A | (d3 d2) :|

